X:1
T:Title
%%score { ( 1 3 ) | ( 2 4 ) }
L:1/8
M:9/8
K:Db
V:1 treble nm="Grand Piano"
V:3 treble 
V:2 bass 
V:4 bass 
V:1
 z3 z3[Q:1/4=114] F2 B | z3 z3 .G3 | F6 [FA]2 [Ff] | [B,Ge]3 [EGB]3 [EGc]2 [CEB] |[M:3/4] [DFA]6 | %5
[M:3/8] [A,DF]2 [DB] |[M:9/8] [CA]3 [CE]3 [EG]2 [Gc] | [FB]3 [FA]3 F2 A | G2 B, [CF]3 [CE]3 | %9
[M:3/4] D6 |[M:3/8] A2 d |[M:9/8] [Gc]3 [GB]3 z3 | B3 A3 z3 | [B,FA]3 .[B,EG]3 [A,CA]2 [A,CE] | %14
[M:3/4] [A,EG]3 [A,DF]3 |[M:3/8] A2 d |[M:9/8] [Gc]3 [GB]3 z3 | [Fd]3 [FA]3 z3 | %18
[M:41/32] z/4 z/4 z/4 z/4 z/4 z/4 z/4 z/4 z/4 z/4 z/4 z/4 z/4 z/4 z/4 z/4 z/4 z/4 z/4 z/4 z/4 z/4 z/4 z/4 z/4 z/4 z/4 z/4 z/4 z/4 z/4 z/4 z/4 z/4 z/ [EG]/4-[EG]/-<[EG]/- | %19
[M:3/4] [EG]3/4 z/4 z z2 z2 |] %20
V:2
 z3 z3 [D,A,D]2 [D,F,D] | [A,,E,]3 [A,,A,]3 E,-[B,,E,][C,E,A,] | [D,F,A,]6 [D,D]2 [D,A,] | %3
 G,,3 G,,3 A,,2 A,, |[M:3/4] D,6 |[M:3/8] D,2 [D,F,] |[M:9/8] [A,,G,]3 [A,,G,]3 [A,,A,]2 [A,,A,] | %7
 [D,A,]3 [D,A,]3 [=D,A,B,]2 [D,B,=D] | [E,B,E]2 [E,G,] [A,,G,]3 [A,,G,]3 |[M:3/4] [D,F,]6 | %10
[M:3/8][K:treble] F2 F |[M:9/8][K:bass] G,2 G, G,2 G, z2 G | D,2 D, D,2 C, [B,,A,]2 B,, | %13
 z3 E,3 z3 |[M:3/4] D,3 D,3 |[M:3/8][K:treble] F2 F |[M:9/8][K:bass] G,2 G, G,2 G, z2 G | %17
 [D,A,]2 D, D,2 D, DF[D,B,] | %18
[M:41/32] A,/4-A,/4-A,/4-A,/4-A,/-<A,/=G,/-<G,/A,/4-A,/4-A,/4-A,/4-A,/-<A,/D,/-<D,/A,,/4-A,,/4-A,,/4-A,,/4-A,,/4-A,,/4-A,,/4-A,,/4-A,,/-<A,,/ z/ B,3/4 | %19
[M:3/4] D,4- D,-D,/4 z/4 z/ |] %20
V:3
 x9 | [CA]3 [CE]3 CB,F | x9 | x9 |[M:3/4] x6 |[M:3/8] x3 |[M:9/8] x9 | x9 | x9 |[M:3/4] x6 | %10
[M:3/8] x3 |[M:9/8] D2 D D2 D G2 c | [DF]2 [DG] [DF]2 [A,E] [=DB]2 [B,DF] | x9 |[M:3/4] x6 | %15
[M:3/8] x3 |[M:9/8] D2 D D2 D G2 e | z2 A, D2 D FA[Gd] | %18
[M:41/32] [Ff]/4-[Ff]/4-[Ff]/4-[Ff]/4-[Ff]/-<[Ff]/[_Fd]/-<[Fd]/[=FA]/4-[FA]/4-[FA]/4-[FA]/4-[FA]/-<[FA]/[A,DF]/-<[A,DF]/[DFA]/4-[DFA]/4-[DFA]/4-[DFA]/4-[DFA]/4-[DFA]/4-[DFA]/4-[DFA]/4-[DFA]/-<[DFA]/C/ z/4 z/ | %19
[M:3/4] [A,DF]4- [A,DF]-[A,DF]/4 z/4 z/ |] %20
V:4
 x9 | z3 z3 .A,,3 | x9 | x9 |[M:3/4] x6 |[M:3/8] x3 |[M:9/8] x9 | x9 | x9 |[M:3/4] x6 | %10
[M:3/8][K:treble] x3 |[M:9/8][K:bass] x9 | x9 | E,3 z2 D A,,2 A,, |[M:3/4] x6 | %15
[M:3/8][K:treble] x3 |[M:9/8][K:bass] x9 | z3 z3 .[D,A,]3 | %18
[M:41/32] D,/4-D,/4-D,/4-D,/4-D,/4-D,/4-D,/4-D,/4-D,/4-D,/4-D,/4-D,/4-D,/4-D,/4-D,/4-D,/4-D,/-<D,/ z/4 z/4 z/4 z/4 z/4 z/4 z/4 z/4 z/4 z/4 z/4 z/4 z/4 z/4 z/ A,,/4-A,,/-<A,,/- | %19
[M:3/4] A,,3/4 z/4 z z2 z2 |] %20

